symbols/web/edgesensor_high/materialsymbolsrounded/edgesensor_high_wght700fill1_24px.svg

<svg xmlns="http://www.w3.org/2000/svg" height="24" width="24"><path d="M3.8 14q-.425 0-.712-.288Q2.8 13.425 2.8 13V8q0-.425.288-.713Q3.375 7 3.8 7t.713.287Q4.8 7.575 4.8 8v5q0 .425-.287.712Q4.225 14 3.8 14ZM1 17q-.425 0-.712-.288Q0 16.425 0 16v-5q0-.425.288-.713Q.575 10 1 10t.712.287Q2 10.575 2 11v5q0 .425-.288.712Q1.425 17 1 17Zm22-3q-.425 0-.712-.288Q22 13.425 22 13V8q0-.425.288-.713Q22.575 7 23 7t.712.287Q24 7.575 24 8v5q0 .425-.288.712Q23.425 14 23 14Zm-2.8 3q-.425 0-.712-.288-.288-.287-.288-.712v-5q0-.425.288-.713.287-.287.712-.287t.713.287q.287.288.287.713v5q0 .425-.287.712-.288.288-.713.288ZM8.775 22.375q-1.325 0-2.238-.913-.912-.912-.912-2.237V4.775q0-1.325.912-2.238.913-.912 2.238-.912h6.45q1.325 0 2.237.912.913.913.913 2.238v14.45q0 1.325-.913 2.237-.912.913-2.237.913Zm0-6.15h6.45v-8.45h-6.45Z"/></svg>

<svg xmlns="http://www.w3.org/2000/svg" height="24" width="24"><path d="M3.8 14Q3.375 14 3.088 13.712Q2.8 13.425 2.8 13V8Q2.8 7.575 3.088 7.287Q3.375 7 3.8 7Q4.225 7 4.513 7.287Q4.8 7.575 4.8 8V13Q4.8 13.425 4.513 13.712Q4.225 14 3.8 14ZM1 17Q0.575 17 0.288 16.712Q0 16.425 0 16V11Q0 10.575 0.288 10.287Q0.575 10 1 10Q1.425 10 1.712 10.287Q2 10.575 2 11V16Q2 16.425 1.712 16.712Q1.425 17 1 17ZM23 14Q22.575 14 22.288 13.712Q22 13.425 22 13V8Q22 7.575 22.288 7.287Q22.575 7 23 7Q23.425 7 23.712 7.287Q24 7.575 24 8V13Q24 13.425 23.712 13.712Q23.425 14 23 14ZM20.2 17Q19.775 17 19.488 16.712Q19.2 16.425 19.2 16V11Q19.2 10.575 19.488 10.287Q19.775 10 20.2 10Q20.625 10 20.913 10.287Q21.2 10.575 21.2 11V16Q21.2 16.425 20.913 16.712Q20.625 17 20.2 17ZM8.775 22.375Q7.45 22.375 6.537 21.462Q5.625 20.55 5.625 19.225V4.775Q5.625 3.45 6.537 2.537Q7.45 1.625 8.775 1.625H15.225Q16.55 1.625 17.462 2.537Q18.375 3.45 18.375 4.775V19.225Q18.375 20.55 17.462 21.462Q16.55 22.375 15.225 22.375ZM8.775 16.225H15.225V7.775H8.775Z"/></svg>
